src/img/logo.svg

<svg width="142" height="83" viewBox="0 0 142 83" fill="none" xmlns="http://www.w3.org/2000/svg">
<path d="M0.767578 0.174614L11.672 0.11641L18.2031 21.5358L25.2589 0H34.1224L41.3532 21.5358L47.7676 0.0582048L58.4388 0L46.1348 37.4257H37.1547L29.6323 16.1227L22.2849 37.4839H13.3048L0.767578 0.174614Z" fill="white"/>
<path d="M68.9335 5.5293L78.7883 8.67235L67.4173 43.9444L57.5625 40.8014L68.9335 5.5293Z" fill="white"/>
<path d="M94.7091 14.9585L109.695 24.1548C114.535 27.1233 117.101 30.441 117.918 33.875C118.676 36.8435 118.092 39.8119 116.168 42.955L116.11 43.0714C113.136 47.9024 108.588 49.5321 103.631 48.7755L104.389 64.4326L94.2426 58.2046L93.7761 44.7011L93.6595 44.6429L89.9275 42.3147L84.0379 51.8603L75.291 46.5055L94.7091 14.9585ZM99.899 39.0553C102.873 40.8596 105.497 40.5104 106.896 38.1822L106.955 38.0658C108.471 35.563 107.48 33.2348 104.506 31.4304L98.791 27.9382L94.126 35.5048L99.899 39.0553Z" fill="white"/>
<path d="M128.415 37.3672L137.686 41.7908L125.557 67.1098L141.768 74.8511L137.861 82.9997L112.32 70.8349L128.415 37.3672Z" fill="white"/>
</svg>

<svg width="142" height="83" viewBox="0 0 142 83" fill="none" xmlns="http://www.w3.org/2000/svg"><path d="M.768.175L11.672.116l6.531 21.42L25.26 0h8.863l7.231 21.536L47.768.058 58.438 0 46.136 37.426h-8.98l-7.523-21.303-7.347 21.36h-8.98L.768.176zM68.933 5.53l9.855 3.142-11.37 35.272-9.856-3.143L68.933 5.53zM94.71 14.959l14.985 9.196c4.84 2.968 7.406 6.286 8.223 9.72.758 2.968.174 5.937-1.75 9.08l-.058.116c-2.974 4.831-7.522 6.461-12.479 5.705l.758 15.657-10.146-6.228-.467-13.504-.117-.058-3.732-2.328-5.89 9.545-8.746-5.355 19.418-31.547zm5.189 24.096c2.974 1.805 5.598 1.455 6.997-.873l.059-.116c1.516-2.503.525-4.831-2.449-6.636l-5.715-3.492-4.665 7.567 5.773 3.55zM128.415 37.367l9.271 4.424-12.129 25.319 16.211 7.741L137.861 83 112.32 70.835l16.095-33.468z" fill="#fff"/></svg>
